X:1
T:Matalè
T:Matalè
T:Vincenzo Valente
T:Salvatore Di Giacomo
T:Canzone per Piedigrotta 1895
T:Miette 'o pede ncopp' 'a seggia stienne 'a gamma e scorcia 'a vesta, quanto veco sta fenesta si so' buono a rebazzà. Meno male, è cosa 'e niente, quatto botte e tutto è fatto, ma mettimmece pe patto ca p'accunto aie da restà... Viene cca...! Me'... viene cca! Ce stongo io p'arreparà. Ma che faie, te miete scuorno? E stu scuorno mo ched'è? Matalena! Matalè!... 
T:E pìaccunto essa è rummasa: vene 'a doie tre vote 'o mese, e io fatico e pavo 'e spese p'amicizia e pe buntà- -Ma che faie?- lle dico spisso- Io te coso e tu te scuse? Io rebazzo e tu spertuse? Ma che cancaro vuo' fa? Viene cca...! Me'... viene cca! Ce stongo io p'arreparà. Ma che faie, te miete scuorno? E stu scuorno mo ched'è? Matalena! Matalè!... 
T:Vuo' sapè che nc'è de nuovo? Matalè me so' stracquato: sora mia tròvete a n'ato, fatte 'a n'to guvernà. Piezz' 'e sola cchià nun tengo, troppo spavo aggio già strutto, so' rummaso asciutto asciutto. e m'allento a faticà... Che buo' fa? Tu che buo' fa? Siente a me, lassammo sta. S'è scusuta n'ata scarpa?!... E che buo'?... Lèvete, lè!... Chest'è troppo, Matalè!...
T:IMSLP403515 Pubblico Dominio
T:IMSLP403515 Pubblico Dominio
T:IMSLP403515 Pubblico Dominio
T:IMSLP403515 Pubblico Dominio
T:IMSLP403515 Pubblico Dominio
C:Vincenzo Valente
Z:Salvatore Di Giacomo
Z:IMSLP403515 Pubblico Dominio
%%score 1 2 { 3 | 4 }
L:1/8
Q:1/4=80
M:2/4
K:Bb
V:1 treble nm="Voice"
V:2 treble nm="Voice"
V:3 treble nm="Piano"
V:4 bass 
V:1
"^Allegretto grazioso" z4 | z4 | z4 | z4 | z4 | z4 | z4 | z4 |"^Solo" z2 z D/ ^F/ | .G .B .A .c | %10
w: ||||||||Ma\- ta\-|lè, tu'o bbì ch' 'e'|
 (B/A/ G) z .G/ .A/ | .B .d .c .e | (d/c/ B) z .c/ .d/ | .e .^F .F .e | (d3/2 B/ .c) .A | %15
w: fat- * to? T'è scu\-|su\- to 'o sti\- va\-|let- * to: vie\- ne|cca, quan\- to te|met\- to io nu|
 (B3/2 G/ .A) .^F |!>(! G4- | G4-!>)! | !>!G z z .D/ .^F/ | .G .B .A .c | (B/A/ G) z .G/ .A/ | %21
w: punto add\- dò ce|vo'.|_|* So' scar\-|pa\- ro d' 'o sut\-|ti- * le, so' pri\-|
 .B .d .c .e | (d/c/ B) z c/ d/ | .e .^F .F .e | (d3/2 B/ .c) .A | (B3/2 G/ .A) .^F || %26
w: ci\- so e tutte 'o|ssan- * no, e po',|'ncapo e 'mpe\- de|ll'an\- no, servo 'a|prim\- ma nu\- bil\-|
[K:G]!>(! G4- | G!>)! z!mf! .d .e | c3/2 A/ .c .d | B z .D .G | (A3/2 ^G/ .A) .c/ z/ | B z .B .B | %32
w: tà.|_ Vie\- ne|cca!... Me'... vie\- ne|cca! Ce ston\-|go io p'ar\- re\- pa\-|rà. Ma che|
 (A3/2 B/ .c) .e | (d3/2 B/ .d) .B | (d3/2 c/ B) A | G z z2 | z4 |!mf! z2 .d .d | (f3/2 e/ .d) .c | %39
w: faie, te miet\- te|scuor\- no? E stu|scuor\- no mo che|d'è?||Ma\- ta\-|le\- na! Ma\- ta\-|
 B!f!!f! z z2 | z4 |!mf! z2 .d .d | (f3/2 e/ .d) .c |!>(! G4- | G4- | G!>)! z !fermata!z2!D.C.! |] %46
w: lè!||Ma\- ta\-|le\- na! Ma\- ta\-|lè!|_||
V:2
 z4 | z4 | z4 | z4 | z4 | z4 | z4 | z4 | z4 | z4 | z4 | z4 | z4 | z4 | z4 | z4 | z4 | z4 | z4 | %19
w: |||||||||||||||||||
 z4 | z4 | z4 | z4 | z4 | z4 | z4 ||[K:G] z4 | z4 | z4 | z4 | z4 | z4 | z4 | z4 |"^Coro" z4 | %35
w: ||||||||||||||||
!f! z .[GB]/ .[GB]/ .[GB] .[FA]/ .[FA]/ | .[FA] .[Ac]/ .[Ac]/ .[Ac] .[GB]/ .[GB]/ | %37
w: Ma\- ta\- lè, Ma\- ta\-|lè, Ma\- ta\-. lè, Ma\- ta\-|
 [GB] z .[Bd] .[Bd] | [df]3/2 [ce]/ .[Bd] .[Ac] | .[GB] .[GB]/ .[GB]/ .[GB] .[FA]/ .[FA]/ | %40
w: lè! E stu|scuor\- no mo che|d'è? Ma\- ta\- lè, Ma\- ta\-|
 .[FA] .[Ac]/ .[Ac]/ .[Ac] .[GB]/ .[GB]/ | [GB]!mf! z .[GB] .[GB] | [Fd]3/2 [Ec]/ .[DB] .[CA] | %43
w: lè, Ma\- ta\-. lè, Ma\- ta\-|lè! E stu|scuor\- no mo che|
!>(! [B,G]4- | [B,G]4- | [B,G]!>)! z z2 |] %46
w: d'è?|||
V:3
!f! z2 z (G/.A/ | B/c/d/e/) .d.g |{/g} !>!e z .G.d |{/d} !>!A z .D.A |{/A} !>!G z!mf! z (G/.A/ | %5
 B/c/d/e/) .d.g |{/g} !>!d z .G.d |{/d} !>!A z .D.A |!p!{/A} !>!G [B,DA] z [B,D] | %9
 z [B,DG] z [CEA] | z [B,DG] z .D/.^F/ | .G.B.A.c | (B/A/ G) z [B,DG] | z [CE^F] z [CEF] | %14
 z [G,DG] z [CEA] | z [G,DG] z [CD^F] | z [B,DG]!mf! z [B,DG] | z [B,DG] z [B,DG] | %18
 z [B,DG]!p! z [B,D] | z [B,DG] z [CEA] | z [B,DG] z .D/.^F/ | .G.B.A.c | (d/c/ B) z [B,DG] | %23
 z [CE^F] z [CEF] | z [G,DG] z [CEA] | z [G,DG] z [CD^F] ||[K:G] (B,/D/G/D/) (B,/D/G/D/) | %27
 (B,/D/G/D/) (B,/D/G/D/) | ((B,/D/F/E/)) ((B,/D/F/E/)) | (B,/D/G/D/) (B,/D/G/D/) | %30
 (C/D/A/D/) (C/D/A/D/) | (B,/D/G/D/) (B,/D/G/D/) | (C/D/A/D/) (C/D/A/D/) | %33
 (B,/D/G/D/) (B,/D/G/D/) | (C/D/F/D/) (C/D/F/D/) |!f! .[B,DG].[GB]/.[GB]/ .[GB].[FA]/.[FA]/ | %36
 .[FA].[Ac]/.[Ac]/ .[Ac].[GB]/.[GB]/ | [GB]!mf! z .[Bd].[Bd] | ([df]>[ce] .[Bd]).[Ac] | %39
 .[GB]!f!.[GB]/.[GB]/ .[GB].[FA]/.[FA]/ | .[FA].[Ac]/.[Ac]/ .[Ac].[GB]/.[GB]/ | %41
 [GB] z!mf! .[GB].[GB] | ([Fd]>[Ed] .[DB]).[CA] | [B,G][B,DG]!f! z !>![G,B,DG] | %44
 z !>![B,DGB] z !>![DGBd] | !>![GBdg] z !fermata!z2 |] %46
V:4
 .G,,.[G,B,] .D,.[G,B,] | .G,,.[G,B,] .D,.[G,B,] | .G,,.[G,B,] .D,.[G,B,] | .D,,.[F,C] .D,.[F,C] | %4
 .G,,.[G,B,] .D,.[G,B,] | .G,,.[G,B,] .D,.[G,B,] | .G,,.[G,B,] .D,.[G,B,] | D,,[^F,C] D,[F,C] | %8
 [G,B,] z [G,,G,] z | [G,,G,] z [^F,,^F,] z | [G,,G,] z .G,,.[D,B,] | .G,,.[D,G,B,] .D,,.[D,^F,C] | %12
 .G,,.[D,G,B,] [G,,G,] z | [G,,,G,,] z [A,,,A,,] z | z [B,,,B,,] z [C,,C,] | [D,,D,] z [D,,D,] z | %16
 [G,,G,] z !>![E,,E,] z | !>![D,,D,] z !>![B,,,B,,] z | [G,,,G,,] z [G,,G,] z | %19
 [G,,G,] z [^F,,^F,] z | [G,,G,] z .G,,.[D,B,] | .G,,.[D,G,B,] .D,,.[D,^F,C] | %22
 .G,,.[D,G,B,] [G,,G,] z | [G,,,G,,] z [A,,,A,,] z | z [B,,,B,,] z [C,,C,] | [D,,D,] z [D,,D,] z || %26
[K:G]!mf! .[G,,G,].[D,,D,] .[G,,G,].[D,,D,] | .[G,,G,].[D,,D,] .[G,,G,].[D,,D,] | %28
 .[A,,A,].[E,,E,] .[A,,A,].[E,,E,] | .[G,,G,].[D,,D,] .[G,,G,].[D,,D,] | %30
 .[G,,G,].[D,,D,] .[G,,G,].[D,,D,] | .[G,,G,].D, .B,,.D,, | .C,.E, .C,.A,, | .D,.B,, .G,,.D,, | %34
 .D,.A,,.F,,.D,, | .G,,.D.[G,B,].D | .G,,._E .[G,C].E | .[G,D] .D,.B,,.G,, | .D,,.D, .D,,.D, | %39
 .G,,.D.[G,B,].D | .G,,._E.[G,C].E | .[G,D] .D,.B,,.G,, | .D,,.D, .D,,.D, | G,, z !>![E,,E,] z | %44
 !>![D,,D,] z !>![B,,,B,,] z | !>![G,,,G,,] z !fermata!z2 |] %46

